polaris-icons/icons/newicons/LandingPageMajor.svg

<svg width="20" height="20" viewBox="0 0 20 20" fill="none" xmlns="http://www.w3.org/2000/svg">
<path fill-rule="evenodd" clip-rule="evenodd" d="M13.5 10C13.5 9.4894 13.4849 8.98764 13.4545 8.5H16.3261C16.4398 8.98152 16.5 9.48373 16.5 10C16.5 10.4142 16.8358 10.75 17.25 10.75C17.6642 10.75 18 10.4142 18 10C18 5.58172 14.4183 2 10 2C5.58172 2 2 5.58172 2 10C2 14.4183 5.58172 18 10 18C10.4142 18 10.75 17.6642 10.75 17.25C10.75 16.8358 10.4142 16.5 10 16.5C9.80462 16.5 9.59595 16.4202 9.36171 16.1689C9.11585 15.9051 8.87174 15.4791 8.65913 14.8769C8.47124 14.3446 8.32048 13.7109 8.21083 13H12.296C12.6756 13 13.0299 12.8091 13.2386 12.492C13.3408 12.3368 13.4042 12.1571 13.4202 11.9682C13.4734 11.3385 13.5 10.6787 13.5 10ZM10 3.5C9.80462 3.5 9.59595 3.5798 9.36171 3.83111C9.11585 4.09489 8.87174 4.52085 8.65913 5.12313C8.47124 5.6554 8.32048 6.28914 8.21083 7H11.7892C11.6795 6.28914 11.5288 5.6554 11.3409 5.12313C11.1283 4.52085 10.8841 4.09489 10.6383 3.83111C10.404 3.5798 10.1954 3.5 10 3.5ZM7.24467 4.62382C7.00077 5.31476 6.8181 6.11988 6.69472 7H4.23221C4.93266 5.65608 6.08903 4.58762 7.49621 3.99974C7.40442 4.19922 7.32082 4.40811 7.24467 4.62382ZM6.5455 8.5H3.67393C3.56019 8.98152 3.5 9.48373 3.5 10C3.5 10.5163 3.56019 11.0185 3.67393 11.5H6.5455C6.51508 11.0124 6.5 10.5106 6.5 10C6.5 9.4894 6.51508 8.98764 6.5455 8.5ZM12 10C12 9.48162 11.9835 8.97988 11.9514 8.5H8.04865C8.0165 8.97988 8 9.48162 8 10C8 10.5184 8.0165 11.0201 8.04865 11.5H11.9514C11.9836 11.0183 12 10.5164 12 10ZM15.7678 7H13.3053C13.1819 6.11988 12.9992 5.31476 12.7553 4.62382C12.6792 4.40811 12.5956 4.19922 12.5038 3.99974C13.911 4.58762 15.0673 5.65608 15.7678 7ZM4.23221 13C4.93266 14.3439 6.08903 15.4124 7.49621 16.0003C7.40442 15.8008 7.32082 15.5919 7.24467 15.3762C7.00077 14.6852 6.8181 13.8801 6.69472 13H4.23221Z" fill="black"/>
<path d="M14 17.75C14 18.1642 14.3358 18.5 14.75 18.5C15.1642 18.5 15.5 18.1642 15.5 17.75V16.5607L17.8447 18.9053C18.1376 19.1982 18.6124 19.1982 18.9053 18.9053C19.1982 18.6124 19.1982 18.1376 18.9053 17.8447L16.5607 15.5H17.75C18.1642 15.5 18.5 15.1642 18.5 14.75C18.5 14.3358 18.1642 14 17.75 14H14.75C14.3358 14 14 14.3358 14 14.75V17.75Z" fill="black"/>
</svg>

<svg viewBox="0 0 20 20" fill="none" xmlns="http://www.w3.org/2000/svg"><path fill-rule="evenodd" clip-rule="evenodd" d="M13.5 10c0-.51-.015-1.012-.046-1.5h2.872c.114.482.174.984.174 1.5a.75.75 0 0 0 1.5 0 8 8 0 1 0-8 8 .75.75 0 0 0 0-1.5c-.195 0-.404-.08-.638-.331-.246-.264-.49-.69-.703-1.292a10.54 10.54 0 0 1-.448-1.877h4.085a1.129 1.129 0 0 0 1.124-1.032c.053-.63.08-1.29.08-1.968Zm-3.5-6.5c-.195 0-.404.08-.638.331-.246.264-.49.69-.703 1.292a10.54 10.54 0 0 0-.448 1.877h3.578c-.11-.71-.26-1.345-.448-1.877-.213-.602-.457-1.028-.703-1.292-.234-.251-.443-.331-.638-.331Zm-2.755 1.124c-.244.69-.427 1.496-.55 2.376h-2.463a6.525 6.525 0 0 1 3.264-3c-.092.2-.175.408-.251.624Zm-.7 3.876h-2.871a6.518 6.518 0 0 0 0 3h2.871a24.138 24.138 0 0 1 0-3Zm5.455 1.5c0-.518-.017-1.02-.049-1.5h-3.902c-.032.48-.049.982-.049 1.5s.017 1.02.049 1.5h3.902c.033-.482.049-.984.049-1.5Zm3.768-3h-2.463c-.123-.88-.306-1.685-.55-2.376a7.319 7.319 0 0 0-.251-.624 6.525 6.525 0 0 1 3.264 3Zm-11.536 6a6.525 6.525 0 0 0 3.264 3 7.343 7.343 0 0 1-.251-.624c-.244-.69-.427-1.496-.55-2.376h-2.463Z" fill="#5C5F62"/><path d="M14 17.75a.75.75 0 0 0 1.5 0v-1.19l2.345 2.345a.75.75 0 1 0 1.06-1.06l-2.344-2.345h1.189a.75.75 0 0 0 0-1.5h-3a.75.75 0 0 0-.75.75v3Z" fill="#5C5F62"/></svg>
